X: 1
T: On The Wings Of A Skorie #3
S: https://thesession.org/tunes/2898 1st setting  2018-5-15
R: reel
M: 4/4
L: 1/8
K: Em
|:\
BE E/E/E BEcE | BE E/E/E GFGB |\
ABGB AGFA | GEED EFGA |\
BE E/E/E BEcE | BE E/E/E GFGB |
ABGB AGFA | GEED [1 E2 GA :|[2 E2 GF \
|:\
EBBG AGFA | GEDE GABd |\
Beed efge |
fedf eBgf |\
eB B/B/B BAFA | GEDE GABd |\
fadf efdB | ABdf [1 e2 BA :|[2 e4 |]
